X: 18083
T: Humours Of Ballyconnell, The
R: reel
M: 4/4
K: Dmajor
|:Ac|"D"defe dB{/c}(BA)|BFAF "A" E2 Ac|"D"defe dB{/c}(BA)|1 "A"BdAF "D"D2:|2 "A"BdAF "D"D3 E||
|:"D"(3(FED) AD (3(FED) AD|"Em" GEBE GEBE|(3(FED) AD "D" (3(FED) FA|1 "A" BFAF "D" D3 E:|2 "A" BFAF "D"D2 fg||
|:"D" a2{/b}(af) a2 af|"A" {/a}(ge)ce gece|"D" ea{/b}a^g aba=g|1 "A" fdef "D" defg:|2 "A" fdef "D" d2||

